devices/48/network-wireless-hotspot.svg

<?xml version="1.0" encoding="UTF-8" standalone="no"?>
<svg
   xmlns:osb="http://www.openswatchbook.org/uri/2009/osb"
   xmlns:dc="http://purl.org/dc/elements/1.1/"
   xmlns:cc="http://creativecommons.org/ns#"
   xmlns:rdf="http://www.w3.org/1999/02/22-rdf-syntax-ns#"
   xmlns:svg="http://www.w3.org/2000/svg"
   xmlns="http://www.w3.org/2000/svg"
   xmlns:xlink="http://www.w3.org/1999/xlink"
   id="svg4405"
   height="48"
   width="48"
   version="1.1">
  <defs
     id="defs4407">
    <linearGradient
       id="linearGradient4187">
      <stop
         offset="0"
         style="stop-color:#ffffff;stop-opacity:1"
         id="stop4189" />
      <stop
         offset="0.02099473"
         style="stop-color:#ffffff;stop-opacity:0.23529412"
         id="stop4191" />
      <stop
         offset="0.97696"
         style="stop-color:#ffffff;stop-opacity:0.15686275"
         id="stop4193" />
      <stop
         offset="1"
         style="stop-color:#ffffff;stop-opacity:0.39215687"
         id="stop4195" />
    </linearGradient>
    <radialGradient
       gradientTransform="matrix(2.003784,0,0,1.4,27.98813,-17.4)"
       gradientUnits="userSpaceOnUse"
       xlink:href="#linearGradient3688-166-749-2-324"
       id="radialGradient3013-896"
       fy="43.5"
       fx="4.9929786"
       r="2.5"
       cy="43.5"
       cx="4.9929786" />
    <linearGradient
       id="linearGradient3688-166-749-2-324">
      <stop
         offset="0"
         style="stop-color:#181818;stop-opacity:1"
         id="stop3216" />
      <stop
         offset="1"
         style="stop-color:#181818;stop-opacity:0"
         id="stop3218" />
    </linearGradient>
    <radialGradient
       gradientTransform="matrix(2.003784,0,0,1.4,-20.01187,-104.4)"
       gradientUnits="userSpaceOnUse"
       xlink:href="#linearGradient3688-464-309-8-331"
       id="radialGradient3015-826"
       fy="43.5"
       fx="4.9929786"
       r="2.5"
       cy="43.5"
       cx="4.9929786" />
    <linearGradient
       id="linearGradient3688-464-309-8-331">
      <stop
         offset="0"
         style="stop-color:#181818;stop-opacity:1"
         id="stop3222" />
      <stop
         offset="1"
         style="stop-color:#181818;stop-opacity:0"
         id="stop3224" />
    </linearGradient>
    <linearGradient
       id="linearGradient3702-501-757-6-946">
      <stop
         offset="0"
         style="stop-color:#181818;stop-opacity:0"
         id="stop3228" />
      <stop
         offset="0.5"
         style="stop-color:#181818;stop-opacity:1"
         id="stop3230" />
      <stop
         offset="1"
         style="stop-color:#181818;stop-opacity:0"
         id="stop3232" />
    </linearGradient>
    <linearGradient
       gradientUnits="userSpaceOnUse"
       xlink:href="#linearGradient3702-501-757-6-946"
       id="linearGradient4395"
       y2="39.999443"
       x2="25.058096"
       y1="47.027729"
       x1="25.058096" />
    <linearGradient
       gradientTransform="translate(1.17e-5,1.00001)"
       gradientUnits="userSpaceOnUse"
       xlink:href="#linearGradient4187"
       id="linearGradient3153"
       y2="41.890972"
       x2="23.99999"
       y1="6.1111298"
       x1="23.99999" />
    <radialGradient
       gradientTransform="matrix(0,9.4975523,-11.65996,0,140.93055,-79.160972)"
       gradientUnits="userSpaceOnUse"
       xlink:href="#linearGradient4223"
       id="radialGradient4144"
       fy="9.9571075"
       fx="6.2001843"
       r="12.671875"
       cy="9.9571075"
       cx="6.7304144" />
    <linearGradient
       id="linearGradient4223">
      <stop
         id="stop4225"
         style="stop-color:#cdf87e;stop-opacity:1"
         offset="0" />
      <stop
         id="stop4227"
         style="stop-color:#a2e34f;stop-opacity:1"
         offset="0.26238" />
      <stop
         id="stop4229"
         style="stop-color:#68b723;stop-opacity:1"
         offset="0.66093999" />
      <stop
         id="stop4231"
         style="stop-color:#1d7e0d;stop-opacity:1"
         offset="1" />
    </linearGradient>
    <linearGradient
       osb:paint="solid"
       id="linearGradient4526">
      <stop
         id="stop4528"
         offset="0"
         style="stop-color:#ffffff;stop-opacity:1;" />
    </linearGradient>
  </defs>
  <metadata
     id="metadata4410">
    <rdf:RDF>
      <cc:Work
         rdf:about="">
        <dc:format>image/svg+xml</dc:format>
        <dc:type
           rdf:resource="http://purl.org/dc/dcmitype/StillImage" />
        <dc:title />
      </cc:Work>
    </rdf:RDF>
  </metadata>
  <g
     style="opacity:0.4"
     id="g3712-0"
     transform="matrix(1.1578952,0,0,0.57142859,-3.789476,19.142856)">
    <rect
       style="fill:url(#radialGradient3013-896);fill-opacity:1;stroke:none"
       id="rect2801-4"
       y="40"
       x="38"
       height="7"
       width="5" />
    <rect
       style="fill:url(#radialGradient3015-826);fill-opacity:1;stroke:none"
       id="rect3696-8"
       transform="scale(-1,-1)"
       y="-47"
       x="-10"
       height="7"
       width="5" />
    <rect
       style="fill:url(#linearGradient4395);fill-opacity:1;stroke:none"
       id="rect3700-7"
       y="40"
       x="10"
       height="7.0000005"
       width="28" />
  </g>
  <rect
     style="color:#000000;fill:url(#radialGradient4144);fill-opacity:1.0;fill-rule:nonzero;stroke:none;stroke-width:0.99999994;marker:none;visibility:visible;display:inline;overflow:visible;enable-background:accumulate"
     id="rect5505-21"
     y="5.5"
     x="4.5000067"
     ry="2"
     rx="2"
     height="39"
     width="39" />
  <rect
     style="opacity:0.6;fill:none;stroke:url(#linearGradient3153);stroke-width:1;stroke-linecap:round;stroke-linejoin:round;stroke-miterlimit:4;stroke-opacity:1;stroke-dasharray:none;stroke-dashoffset:0"
     id="rect6741-1"
     y="6.5"
     x="5.5000081"
     ry="1"
     rx="1"
     height="37"
     width="37" />
  <rect
     style="opacity:0.4;color:#000000;fill:none;stroke:#0a3600;stroke-width:0.99999994;stroke-linecap:round;stroke-linejoin:miter;stroke-miterlimit:4;stroke-opacity:1;stroke-dasharray:none;stroke-dashoffset:0;marker:none;visibility:visible;display:inline;overflow:visible;enable-background:accumulate;clip-rule:nonzero;isolation:auto;mix-blend-mode:normal;color-interpolation:sRGB;color-interpolation-filters:linearRGB;solid-color:#000000;solid-opacity:1;fill-opacity:1;fill-rule:nonzero;filter-blend-mode:normal;filter-gaussianBlur-deviation:0;color-rendering:auto;image-rendering:auto;shape-rendering:auto;text-rendering:auto"
     id="rect5505-21-6"
     y="5.5"
     x="4.5000081"
     ry="2"
     rx="2"
     height="39"
     width="39" />
  <path
     d="m 17.587891,16.943359 c -3.800869,0 -6.894532,3.093663 -6.894532,6.894532 l 0,0.324218 c 0,2.584714 1.424382,4.845217 3.535157,6.021485 a 1.0559074,1.0559074 0 0 0 1.53125,-0.636719 c 0.210149,3.613369 3.151321,6.511719 6.816406,6.511719 l 7.824219,0 c 3.800868,0 6.894531,-3.093663 6.894531,-6.894532 l 0,-0.324218 c 0,-2.584713 -1.424382,-4.845216 -3.535156,-6.021485 a 1.0559074,1.0559074 0 0 0 -1.53125,0.636719 c -0.21015,-3.613368 -3.151322,-6.511719 -6.816407,-6.511719 l -7.824218,0 z m 0.162109,4.113282 7.5,0 c 0.870121,0 1.601989,0.386069 2.136719,0.96875 a 1.0559074,1.0559074 0 0 0 -0.398438,-0.08008 l -4.412109,0 c -3.24895,0 -5.85528,2.307693 -6.580078,5.337891 0.01001,-0.04152 0.0069,-0.08558 0.01758,-0.126953 A 1.0559074,1.0559074 0 0 0 15.720703,26.126953 C 15.15511,25.587405 14.806641,24.846556 14.806641,24 c 0,-1.649348 1.294011,-2.943359 2.943359,-2.943359 z m 14.242188,4.662109 c -0.01,0.04152 -0.0069,0.08558 -0.01758,0.126953 a 1.0559074,1.0559074 0 0 0 0.292969,1.027344 c 0.564973,0.538891 0.914063,1.282218 0.914063,2.128906 0,1.649348 -1.294012,2.94336 -2.94336,2.943359 l -7.5,0 c -0.870121,0 -1.601989,-0.386068 -2.136719,-0.96875 A 1.0559074,1.0559074 0 0 0 21,31.056641 l 4.412109,0 c 3.24895,0 5.85528,-2.307693 6.580079,-5.337891 z m -4.607422,0.259766 C 26.85015,26.559319 26.11853,26.943359 25.25,26.943359 l -4.248047,0 a 1.0559074,1.0559074 0 0 0 -0.398437,0.08008 c 0.534615,-0.580804 1.266235,-0.964844 2.134765,-0.964844 l 4.248047,0 a 1.0559074,1.0559074 0 0 0 0.398438,-0.08008 z"
     id="path4472"
     style="color:#000000;clip-rule:nonzero;display:inline;overflow:visible;visibility:visible;opacity:0.15;isolation:auto;mix-blend-mode:normal;color-interpolation:sRGB;color-interpolation-filters:linearRGB;solid-color:#000000;solid-opacity:1;fill:#4c8b1c;fill-opacity:1;fill-rule:nonzero;stroke:none;stroke-width:1.07265484;stroke-linecap:butt;stroke-linejoin:miter;stroke-miterlimit:4;stroke-dasharray:none;stroke-dashoffset:0;stroke-opacity:1;marker:none;color-rendering:auto;image-rendering:auto;shape-rendering:auto;text-rendering:auto;enable-background:accumulate;filter-blend-mode:normal;filter-gaussianBlur-deviation:0" />
  <path
     id="rect4361-2"
     d="m 17.587891,18.000047 c -3.234233,0 -5.837891,2.603658 -5.837891,5.837891 l 0,0.324218 c 0,2.198947 1.205171,4.103762 2.992188,5.09961 -4.13e-4,-0.03284 -0.0059,-0.06472 -0.0059,-0.09766 l 0,-0.324218 c 0,-0.673095 0.09397,-1.324551 0.25586,-1.949219 C 14.229521,26.16316 13.75,25.142151 13.75,24.000047 c 0,-2.216 1.784,-4 4,-4 l 7.5,0 c 2.216,0 4,1.784 4,4 0,2.216 -1.784,4 -4,4 l -4.248047,0 c -0.162346,0.29184 -0.261719,0.629554 -0.261719,1.001953 0,0.371035 0.09853,0.70691 0.259766,0.998047 l 4.412109,0 c 3.234233,0 5.837891,-2.603658 5.837891,-5.837891 l 0,-0.324218 c 0,-3.234233 -2.603658,-5.837891 -5.837891,-5.837891 l -7.824218,0 z M 22.576172,23.002 c -3.234233,0 -5.837891,2.603658 -5.837891,5.837891 l 0,0.324218 c 0,3.234233 2.603658,5.837891 5.837891,5.837891 l 7.824219,0 c 3.234233,0 5.83789,-2.603658 5.83789,-5.837891 l 0,-0.324218 c 0,-2.198946 -1.205171,-4.103762 -2.992187,-5.09961 4.11e-4,0.03284 0.0059,0.06472 0.0059,0.09766 l 0,0.324218 c 0,0.672438 -0.09428,1.323151 -0.255859,1.947266 0.76273,0.727518 1.242187,1.750419 1.242187,2.892578 0,2.216 -1.784,4 -4,4 l -7.5,0 c -2.216,0 -4,-1.784 -4,-4 0,-2.216 1.784,-4 4,-4 l 4.248047,0 c 0.16251,-0.291971 0.261678,-0.629307 0.261678,-1.001956 0,-0.371035 -0.09853,-0.70691 -0.259766,-0.998047 l -4.412109,0 z"
     style="color:#000000;clip-rule:nonzero;display:inline;overflow:visible;visibility:visible;opacity:0.3;isolation:auto;mix-blend-mode:normal;color-interpolation:sRGB;color-interpolation-filters:linearRGB;solid-color:#000000;solid-opacity:1;fill:#4c8b1c;fill-opacity:1;fill-rule:nonzero;stroke:none;stroke-width:1.07265484;stroke-linecap:butt;stroke-linejoin:miter;stroke-miterlimit:4;stroke-dasharray:none;stroke-dashoffset:0;stroke-opacity:1;marker:none;color-rendering:auto;image-rendering:auto;shape-rendering:auto;text-rendering:auto;enable-background:accumulate;filter-blend-mode:normal;filter-gaussianBlur-deviation:0" />
  <path
     id="rect4361"
     d="M 17.587891 17 C 14.353658 17 11.75 19.603658 11.75 22.837891 L 11.75 23.162109 C 11.75 25.361056 12.955171 27.265871 14.742188 28.261719 C 14.741775 28.228878 14.736328 28.196995 14.736328 28.164062 L 14.736328 27.839844 C 14.736328 27.166749 14.830298 26.515293 14.992188 25.890625 C 14.229521 25.163113 13.75 24.142104 13.75 23 C 13.75 20.784 15.534 19 17.75 19 L 25.25 19 C 27.466 19 29.25 20.784 29.25 23 C 29.25 25.216 27.466 27 25.25 27 L 21.001953 27 C 20.839607 27.29184 20.740234 27.629554 20.740234 28.001953 C 20.740234 28.372988 20.838769 28.708863 21 29 L 25.412109 29 C 28.646342 29 31.25 26.396342 31.25 23.162109 L 31.25 22.837891 C 31.25 19.603658 28.646342 17 25.412109 17 L 17.587891 17 z M 22.576172 22.001953 C 19.341939 22.001953 16.738281 24.605611 16.738281 27.839844 L 16.738281 28.164062 C 16.738281 31.398295 19.341939 34.001953 22.576172 34.001953 L 30.400391 34.001953 C 33.634624 34.001953 36.238281 31.398295 36.238281 28.164062 L 36.238281 27.839844 C 36.238281 25.640898 35.03311 23.736082 33.246094 22.740234 C 33.246505 22.773075 33.251953 22.804958 33.251953 22.837891 L 33.251953 23.162109 C 33.251953 23.834547 33.157677 24.48526 32.996094 25.109375 C 33.758824 25.836893 34.238281 26.859794 34.238281 28.001953 C 34.238281 30.217953 32.454281 32.001953 30.238281 32.001953 L 22.738281 32.001953 C 20.522281 32.001953 18.738281 30.217953 18.738281 28.001953 C 18.738281 25.785953 20.522281 24.001953 22.738281 24.001953 L 26.986328 24.001953 C 27.148879 23.709985 27.248047 23.372649 27.248047 23 C 27.248047 22.628965 27.149512 22.29309 26.988281 22.001953 L 22.576172 22.001953 z "
     style="color:#000000;clip-rule:nonzero;display:inline;overflow:visible;visibility:visible;opacity:1;isolation:auto;mix-blend-mode:normal;color-interpolation:sRGB;color-interpolation-filters:linearRGB;solid-color:#000000;solid-opacity:1;fill:#ffffff;fill-opacity:1;fill-rule:nonzero;stroke:none;stroke-width:0.99999994;stroke-linecap:round;stroke-linejoin:miter;stroke-miterlimit:4;stroke-dasharray:none;stroke-dashoffset:0;stroke-opacity:1;marker:none;color-rendering:auto;image-rendering:auto;shape-rendering:auto;text-rendering:auto;enable-background:accumulate" />
</svg>

<svg xmlns="http://www.w3.org/2000/svg" xmlns:xlink="http://www.w3.org/1999/xlink" viewBox="0 0 48 48"><defs><linearGradient id="d"><stop offset="0" stop-color="#fff"/><stop offset=".021" stop-color="#fff" stop-opacity=".235"/><stop offset=".977" stop-color="#fff" stop-opacity=".157"/><stop offset="1" stop-color="#fff" stop-opacity=".392"/></linearGradient><radialGradient gradientTransform="matrix(2.00378 0 0 1.4 27.988 -17.4)" gradientUnits="userSpaceOnUse" xlink:href="#a" id="f" fy="43.5" fx="4.993" r="2.5" cy="43.5" cx="4.993"/><linearGradient id="a"><stop offset="0" stop-color="#181818"/><stop offset="1" stop-color="#181818" stop-opacity="0"/></linearGradient><radialGradient gradientTransform="matrix(2.00378 0 0 1.4 -20.012 -104.4)" gradientUnits="userSpaceOnUse" xlink:href="#b" id="g" fy="43.5" fx="4.993" r="2.5" cy="43.5" cx="4.993"/><linearGradient id="b"><stop offset="0" stop-color="#181818"/><stop offset="1" stop-color="#181818" stop-opacity="0"/></linearGradient><linearGradient id="c"><stop offset="0" stop-color="#181818" stop-opacity="0"/><stop offset=".5" stop-color="#181818"/><stop offset="1" stop-color="#181818" stop-opacity="0"/></linearGradient><linearGradient gradientUnits="userSpaceOnUse" xlink:href="#c" id="h" y2="39.999" x2="25.058" y1="47.028" x1="25.058"/><linearGradient gradientTransform="translate(0 1)" gradientUnits="userSpaceOnUse" xlink:href="#d" id="j" y2="41.891" x2="24" y1="6.111" x1="24"/><radialGradient gradientTransform="matrix(0 9.49755 -11.65996 0 140.93 -79.16)" gradientUnits="userSpaceOnUse" xlink:href="#e" id="i" fy="9.957" fx="6.2" r="12.672" cy="9.957" cx="6.73"/><linearGradient id="e"><stop offset="0" stop-color="#cdf87e"/><stop offset=".262" stop-color="#a2e34f"/><stop offset=".661" stop-color="#68b723"/><stop offset="1" stop-color="#1d7e0d"/></linearGradient></defs><g opacity=".4"><path fill="url(#f)" d="M38 40h5v7h-5z" transform="matrix(1.1579 0 0 .57143 -3.79 19.143)"/><path transform="matrix(-1.1579 0 0 -.57143 -3.79 19.143)" fill="url(#g)" d="M-10-47h5v7h-5z"/><path fill="url(#h)" d="M10 40h28v7H10z" transform="matrix(1.1579 0 0 .57143 -3.79 19.143)"/></g><rect y="5.5" x="4.5" ry="2" rx="2" height="39" width="39" color="#000" fill="url(#i)" overflow="visible"/><rect y="6.5" x="5.5" ry="1" rx="1" height="37" width="37" opacity=".6" fill="none" stroke="url(#j)" stroke-linecap="round" stroke-linejoin="round"/><rect style="isolation:auto;mix-blend-mode:normal;filter-blend-mode:normal;filter-gaussianBlur-deviation:0" y="5.5" x="4.5" ry="2" rx="2" height="39" width="39" opacity=".4" color="#000" fill="none" stroke="#0a3600" stroke-linecap="round" overflow="visible"/><path d="M17.588 16.943a6.903 6.903 0 0 0-6.895 6.895v.324a6.89 6.89 0 0 0 3.536 6.022 1.056 1.056 0 0 0 1.53-.637c.21 3.613 3.15 6.512 6.81 6.512h7.83c3.8 0 6.893-3.1 6.893-6.9v-.327a6.89 6.89 0 0 0-3.535-6.023 1.056 1.056 0 0 0-1.53.638c-.213-3.613-3.154-6.51-6.82-6.51h-7.823zm.162 4.114h7.5c.87 0 1.602.386 2.137.968a1.056 1.056 0 0 0-.4-.08h-4.41c-3.25 0-5.856 2.308-6.58 5.338.01-.04.006-.085.017-.127a1.056 1.056 0 0 0-.293-1.03A2.907 2.907 0 0 1 14.81 24a2.913 2.913 0 0 1 2.943-2.943zm14.242 4.662c-.01.04-.007.08-.017.12a1.056 1.056 0 0 0 .293 1.026c.565.54.914 1.282.914 2.13a2.913 2.913 0 0 1-2.944 2.942h-7.5c-.87 0-1.602-.387-2.136-.97a1.056 1.056 0 0 0 .398.08h4.412c3.25 0 5.855-2.307 6.58-5.337zm-4.607.26c-.535.58-1.266.96-2.135.96h-4.248a1.056 1.056 0 0 0-.398.08c.534-.58 1.266-.968 2.134-.968h4.248a1.056 1.056 0 0 0 .4-.08z" style="isolation:auto;mix-blend-mode:normal;filter-blend-mode:normal;filter-gaussianBlur-deviation:0" color="#000" overflow="visible" opacity=".15" fill="#4c8b1c"/><path d="M17.588 18a5.825 5.825 0 0 0-5.838 5.838v.324a5.82 5.82 0 0 0 2.992 5.1c0-.033-.006-.065-.006-.098v-.324c0-.673.094-1.325.256-1.95A3.978 3.978 0 0 1 13.75 24c0-2.216 1.784-4 4-4h7.5c2.216 0 4 1.784 4 4s-1.784 4-4 4h-4.248A2.047 2.047 0 0 0 21 30h4.412a5.825 5.825 0 0 0 5.838-5.838v-.324A5.825 5.825 0 0 0 25.412 18h-7.824zm4.988 5.002a5.825 5.825 0 0 0-5.838 5.838v.324a5.825 5.825 0 0 0 5.838 5.838H30.4a5.825 5.825 0 0 0 5.838-5.838v-.324a5.82 5.82 0 0 0-2.992-5.1c0 .033.006.065.006.098v.324c0 .673-.094 1.323-.256 1.947A3.982 3.982 0 0 1 34.238 29c0 2.216-1.784 4-4 4h-7.5a3.99 3.99 0 0 1-4-4c0-2.216 1.784-4 4-4h4.248a2.044 2.044 0 0 0 .002-2h-4.412z" style="isolation:auto;mix-blend-mode:normal;filter-blend-mode:normal;filter-gaussianBlur-deviation:0" color="#000" overflow="visible" opacity=".3" fill="#4c8b1c"/><path d="M17.588 17a5.825 5.825 0 0 0-5.838 5.838v.324a5.82 5.82 0 0 0 2.992 5.1c0-.033-.006-.065-.006-.098v-.324c0-.673.094-1.325.256-1.95A3.978 3.978 0 0 1 13.75 23c0-2.216 1.784-4 4-4h7.5c2.216 0 4 1.784 4 4s-1.784 4-4 4h-4.248A2.047 2.047 0 0 0 21 29h4.412a5.825 5.825 0 0 0 5.838-5.838v-.324A5.825 5.825 0 0 0 25.412 17h-7.824zm4.988 5.002a5.825 5.825 0 0 0-5.838 5.838v.324a5.825 5.825 0 0 0 5.838 5.838H30.4a5.825 5.825 0 0 0 5.838-5.838v-.324a5.82 5.82 0 0 0-2.992-5.1c0 .033.006.065.006.098v.324c0 .673-.094 1.323-.256 1.947A3.982 3.982 0 0 1 34.238 28c0 2.216-1.784 4-4 4h-7.5a3.99 3.99 0 0 1-4-4c0-2.216 1.784-4 4-4h4.248a2.044 2.044 0 0 0 .002-2h-4.412z" style="isolation:auto;mix-blend-mode:normal" color="#000" overflow="visible" fill="#fff"/></svg>
